X: 1119
T: Light and Airy!   #2
R: slip jig
%S: s:2 b:10(5+5
B: O'Neill's 1850 #1119
O: O'Reilly
Z: Michael D. Long, 1/9/99
Z: Michael Hogan
M: 9/8
L: 1/8
K: A
"^A"|: c2A A2A czA | Bcd ecA Bcd | c2A A2A czA | B2=G GzA Bcd "^B":: e3 ^d2e czA |
| Bcd ecA Bcd |[1 e3 ^d2e czA | Bz=G G2A Bcd :|[2 e3 f3 =g3 | Bz=G G2A Bcd |]
